X: 21481
T: GIRNIGOE CASTLE -- Strathspey
C: By Bain, Wick
R: strathspey
B: K\"ohler's Violin Repository, v.2, 1885 p.148 #1
F: http://www.archive.org/details/klersviolinrepos02rugg
Z: 2012 John Chambers <jc:trillian.mit.edu>
M: C|
L: 1/8
K: G
uD |\
B,<D(D>E) (G>A)B>e | (.d>.B)(A>G) E/E/E (E>G) | B,<D(D>E) (G>A)B>e |
(.d>.B)(A>B) G/G/G G :| uc | c>d(d>e) (g>a)g>e | (.d>.B)(A>G) A/A/A (A>d) |
B<d(d>e) (g>a)g>e | (.d>.B)(A>B) G/G/G (G>c) | B<d(d>e) (g>a)g>e |
(.g>.b)(a>g) e/e/e (e>g) | (g>b) (e>g) (d>e) {a}(g>e) | (.d>.B)(A>B) "_Segue Reel."G/G/G G "^D.C."|]

%%sep 2 1 500

